src/svg/11-flags/flag-cy.svg

<?xml version="1.0" encoding="UTF-8" standalone="no"?>
<svg width="640px" height="480px" viewBox="0 0 640 480" version="1.1" xmlns="http://www.w3.org/2000/svg" xmlns:xlink="http://www.w3.org/1999/xlink">
    <g stroke="none" stroke-width="1" fill="none" fill-rule="evenodd">
        <rect fill="#FFFFFF" x="0" y="0" width="640" height="480"></rect>
        <path d="M305.84,401.56 C305.68,401.48 305.68,401.48 305.6,401.4 L305.52,401.32 C305.28,401.08 304.8,400.68 304.24,400.04 C303.2,398.84 301.76,397.08 300.48,395.48 C298,392.36 295.92,389.72 295.52,389.16 L294.88,388.36 L288.64,386.44 L284.08,384.36 L286.48,381.64 L294.8,385.24 L301.04,386.52 L312.56,395 L312.56,395 C312.56,395 310.88,396.36 309.28,397.88 C308.56,398.52 307.6,399.4 306.96,400.12 C306.64,400.44 306.4,400.76 306.24,401 C306.16,401.16 306.08,401.32 306,401.4 L306.72,400.92 L307.52,401.56 L305.92,401.72 L305.84,401.56 L305.84,401.56 L305.84,401.56 L305.84,401.56 L305.84,401.56 Z M263.2,388.76 C257.76,388.76 252.4,387.24 247.28,384.28 L247.28,384.28 L247.28,384.28 C247.28,384.28 247.92,383 249.6,381.8 C251.12,380.68 253.92,379.32 258.48,379.32 L258.56,379.32 C263.92,379.32 270.48,381.16 278.08,384.76 C277.76,384.92 271.84,388.76 263.2,388.76 L263.2,388.76 L263.2,388.76 L263.2,388.76 L263.2,388.76 L263.2,388.76 Z M239.68,383.56 C238.64,383.56 237.76,383.16 237.12,382.52 C236.64,381.96 236.24,381.24 236,380.2 C235.6,378.6 235.68,377 235.68,376.84 C236.08,376.68 236.56,376.6 236.96,376.52 L237.04,376.52 C239.04,376.52 240.64,378.28 241.28,379.96 C241.68,380.92 241.76,381.8 241.52,382.44 C241.28,383.08 240.56,383.56 239.68,383.56 L239.68,383.56 L239.68,383.56 L239.68,383.56 L239.68,383.56 Z M281.04,378.76 C267.12,376.76 261.28,371.72 258.8,367.88 C256.16,363.8 256.72,359.96 256.72,359.88 L256.72,359.88 L256.72,359.88 C256.72,359.88 257.6,359.64 258.88,359.64 C262.48,359.72 271.92,361.56 281.04,378.76 L281.04,378.76 L281.04,378.76 L281.04,378.76 L281.04,378.76 L281.04,378.76 L281.04,378.76 Z M252.56,376.04 C246.64,376.04 242.08,375 239.12,373 C237.44,371.8 236.56,370.6 236.16,369.72 C235.76,368.92 235.68,368.2 235.68,368.12 C235.84,368.04 238.24,367 241.92,366.84 L242.88,366.84 C247.44,366.84 254.4,368.36 261.76,375.48 L261.76,375.48 L261.76,375.48 C258.4,375.8 255.28,376.04 252.56,376.04 L252.56,376.04 L252.56,376.04 L252.56,376.04 L252.56,376.04 Z M223.84,374.92 C217.6,374.92 208.96,373 203.6,367.64 L203.6,367.64 L203.6,367.64 C203.68,367.64 209.44,366.12 216,365.96 L217.2,365.96 C223.04,365.96 227.52,367.08 230.56,369.32 C231.6,370.12 232.16,370.84 232.32,371.56 C232.4,372.12 232.08,372.76 231.44,373.24 C230.08,374.28 227.68,374.76 224.32,374.84 L223.84,374.92 L223.84,374.92 L223.84,374.92 L223.84,374.92 L223.84,374.92 Z M203.52,364.52 C202.72,364.52 202,364.2 201.52,363.56 C201.12,363.08 200.8,362.44 200.64,361.56 C200.32,360.12 200.4,358.6 200.4,358.6 L200.4,358.6 C200.72,358.44 201.04,358.36 201.36,358.36 L201.36,358.36 C202.32,358.36 202.96,358.84 203.44,359.32 C204,359.88 204.48,360.6 204.8,361.4 C205.12,362.2 205.12,362.92 204.96,363.48 C204.8,364.04 204.32,364.52 203.52,364.52 L203.52,364.52 L203.52,364.52 L203.52,364.52 L203.52,364.52 Z M250.4,363.48 C249.36,363.48 248.48,363.08 247.84,362.44 C247.36,361.88 246.96,361.16 246.72,360.12 C246.32,358.52 246.4,356.92 246.4,356.76 C246.8,356.6 247.28,356.52 247.68,356.44 L247.76,356.44 C249.76,356.44 251.36,358.2 252,359.88 C252.4,360.84 252.48,361.72 252.24,362.36 C252,363 251.28,363.48 250.4,363.48 L250.4,363.48 L250.4,363.48 L250.4,363.48 L250.4,363.48 Z M227.6,362.52 C215.04,362.04 208.48,358.52 205.2,355.56 C203.36,353.88 202.32,352.28 201.84,351.24 C201.36,350.2 201.12,349.48 201.12,349.32 L201.12,349.32 C201.12,349.32 202.32,348.92 204.24,348.84 L204.56,348.84 C208.72,348.76 217.36,350.6 227.6,362.52 L227.6,362.52 L227.6,362.52 L227.6,362.52 L227.6,362.52 L227.6,362.52 Z M241.2,361.24 C231.04,359.72 225.36,355.32 222.32,351.96 C219.12,348.44 218.16,345.16 218.16,345 C218.16,345 219.44,344.68 221.28,344.6 L221.68,344.6 L222.16,344.6 C227.28,344.76 236.48,347.08 241.2,361.24 L241.2,361.24 L241.2,361.24 L241.2,361.24 L241.2,361.24 L241.2,361.24 Z M189.2,356.36 C185.92,356.36 182.64,355.96 179.6,355.24 C174.32,353.88 172,351.88 171.04,350.44 C170.48,349.64 170.32,348.84 170.24,348.44 C170.16,347.96 170.24,347.64 170.24,347.56 L170.24,347.56 C170.24,347.56 173.76,346.6 178.64,346.52 L179.2,346.52 C181.52,346.52 183.84,346.76 186.08,347.16 C194.48,348.84 198.88,355.24 198.96,355.24 L198.96,355.24 L198.96,355.24 C198.88,355.24 194.88,356.36 189.2,356.36 L189.2,356.36 L189.2,356.36 L189.2,356.36 L189.2,356.36 Z M212.72,347.88 C211.68,347.88 210.8,347.48 210.16,346.84 C209.68,346.28 209.28,345.56 209.04,344.52 C208.64,342.92 208.72,341.32 208.72,341.16 C209.12,341 209.6,340.92 210,340.84 L210.08,340.84 C212.08,340.84 213.68,342.6 214.32,344.28 C214.72,345.24 214.72,346.04 214.48,346.68 C214.32,347.4 213.6,347.88 212.72,347.88 L212.72,347.88 L212.72,347.88 L212.72,347.88 L212.72,347.88 Z M195.04,345.4 C194.96,345.4 190.24,344.2 185.44,341.24 C181.04,338.52 175.6,333.64 174.88,326.2 L174.88,326.2 L174.88,326.2 C174.88,326.2 175.28,326.12 175.92,326.04 L176.16,326.04 C177.52,326.04 180.16,326.44 183.44,328.92 C187.76,332.12 191.6,337.64 195.04,345.4 L195.04,345.4 L195.04,345.4 L195.04,345.4 L195.04,345.4 Z M206.64,345 C206.64,345 203.28,343.64 199.04,340.12 C195.12,336.84 189.68,330.92 185.68,321.48 C185.68,321.48 186.56,321 188,320.92 L188.24,320.92 L188.64,320.92 C190.56,321 193.52,321.8 196.8,325.32 C200.48,329.32 203.76,335.96 206.64,345 L206.64,345 L206.64,345 L206.64,345 L206.64,345 L206.64,345 L206.64,345 Z M176.72,344.12 C172.88,344.12 171.52,342.04 171.12,341.16 C170.48,339.72 170.64,338.2 170.64,338.2 L170.64,338.2 C171.28,338.04 171.92,337.96 172.56,337.96 L172.72,337.96 C175.76,337.96 178.16,339.48 179.2,341 C179.44,341.32 180,342.36 179.52,343.16 C179.12,343.8 178.16,344.12 176.72,344.12 L176.72,344.12 L176.72,344.12 L176.72,344.12 L176.72,344.12 Z M168.16,333.32 C166,333.32 162.72,333.16 159.28,332.52 C155.84,331.88 153.92,329 152.88,326.6 C151.76,324.04 151.44,321.64 151.44,321.56 L151.44,321.56 C162.08,321.88 167.12,325 169.44,327.56 C171.84,330.2 172,332.92 172,333.08 L172,333.08 C171.92,333.24 170.4,333.32 168.16,333.32 L168.16,333.32 L168.16,333.32 L168.16,333.32 L168.16,333.32 Z M179.2,322.28 C179.2,322.28 178,320.76 176.8,318.92 C175.52,317 174.4,314.92 174.4,313.24 C174.4,311.64 174,308.2 173.76,306.36 C173.44,303.96 173.2,301.96 173.12,301.72 L173.12,301.72 C173.36,301.8 179.76,304.2 179.76,310.2 C179.84,316.2 179.2,322.2 179.2,322.28 L179.2,322.28 L179.2,322.28 L179.2,322.28 L179.2,322.28 L179.2,322.28 L179.2,322.28 Z M170.96,321.72 L170.8,321.72 C168.88,321.4 165.6,319.96 161.92,317.88 C157.84,315.56 154.56,313.08 152.64,310.84 C150.88,308.84 149.84,305.64 149.52,301.48 C149.28,298.52 149.6,295.96 149.6,295.72 C149.92,295.64 150.32,295.56 150.64,295.56 C152.08,295.56 153.52,296.2 155.6,297.64 C157.2,298.76 158.96,300.2 160.8,302.04 C164,305.24 166.56,308.36 166.56,308.44 L166.56,308.44 C166.8,308.84 168.56,312.12 170,315.32 C170.88,317.32 171.44,318.84 171.6,319.88 C171.68,320.52 171.76,320.92 171.6,321.32 C171.52,321.48 171.44,321.64 171.28,321.64 C171.2,321.72 171.12,321.72 170.96,321.72 L170.96,321.72 L170.96,321.72 L170.96,321.72 L170.96,321.72 Z" fill="#435125"></path>
        <path d="M285.6624,401.56 C285.8224,401.48 285.8224,401.48 285.9024,401.4 L285.9824,401.32 C286.2224,401.08 286.7024,400.68 287.2624,400.04 C288.3024,398.84 289.7424,397.08 291.0224,395.48 C293.5024,392.36 295.5824,389.72 295.9824,389.16 L296.6224,388.36 L302.8624,386.44 L307.4224,384.36 L305.0224,381.64 L296.7024,385.24 L290.4624,386.52 L278.9424,394.84 C278.9424,394.84 280.6224,396.2 282.2224,397.72 C282.9424,398.36 283.9024,399.24 284.5424,399.96 C284.8624,400.28 285.1024,400.6 285.2624,400.84 C285.3424,401 285.4224,401.16 285.5024,401.24 L284.7824,400.76 L283.9824,401.4 L285.5824,401.56 L285.6624,401.56 L285.6624,401.56 L285.6624,401.56 Z M328.3024,388.76 C333.7424,388.76 339.1024,387.24 344.2224,384.28 C344.2224,384.28 343.5824,383 341.9024,381.8 C340.3824,380.68 337.5824,379.32 333.0224,379.32 L332.9424,379.32 C327.5824,379.32 321.0224,381.16 313.4224,384.76 C313.7424,384.92 319.6624,388.76 328.3024,388.76 L328.3024,388.76 L328.3024,388.76 Z M351.8224,383.56 C352.8624,383.56 353.7424,383.16 354.3824,382.52 C354.8624,381.96 355.2624,381.24 355.5024,380.2 C355.9024,378.6 355.8224,377 355.8224,376.84 C355.4224,376.68 354.9424,376.6 354.5424,376.52 L354.4624,376.52 C352.4624,376.52 350.8624,378.28 350.2224,379.96 C349.8224,380.92 349.7424,381.8 349.9824,382.44 C350.1424,383.08 350.9424,383.56 351.8224,383.56 L351.8224,383.56 L351.8224,383.56 Z M310.4624,378.76 C324.3824,376.76 330.2224,371.72 332.7024,367.88 C335.3424,363.8 334.7824,359.96 334.7824,359.88 C334.7824,359.88 333.9024,359.64 332.6224,359.64 C329.0224,359.72 319.5824,361.56 310.4624,378.76 L310.4624,378.76 L310.4624,378.76 Z M338.9424,376.04 C344.8624,376.04 349.4224,375 352.3824,373 C354.0624,371.8 354.9424,370.6 355.3424,369.72 C355.7424,368.92 355.8224,368.2 355.8224,368.12 C355.6624,368.04 353.2624,367 349.5824,366.84 L348.6224,366.84 C344.0624,366.84 337.1024,368.36 329.7424,375.48 C333.1024,375.8 336.1424,376.04 338.9424,376.04 L338.9424,376.04 L338.9424,376.04 Z M367.6624,374.92 C373.9024,374.92 382.5424,373 387.9024,367.64 C387.8224,367.64 382.0624,366.12 375.5024,365.96 L374.3024,365.96 C368.4624,365.96 363.9824,367.08 360.9424,369.32 C359.9024,370.12 359.3424,370.84 359.1824,371.56 C359.1024,372.12 359.4224,372.76 360.0624,373.24 C361.4224,374.28 363.8224,374.76 367.1824,374.84 L367.6624,374.92 L367.6624,374.92 L367.6624,374.92 Z M387.9024,364.52 C388.7024,364.52 389.4224,364.2 389.9024,363.56 C390.3024,363.08 390.6224,362.44 390.7824,361.56 C391.1024,360.12 391.0224,358.6 391.0224,358.6 C390.7024,358.44 390.3824,358.36 390.0624,358.36 C389.1024,358.36 388.4624,358.84 387.9824,359.32 C387.4224,359.88 386.9424,360.6 386.6224,361.4 C386.3024,362.2 386.3024,362.92 386.4624,363.48 C386.6224,364.04 387.1824,364.52 387.9024,364.52 L387.9024,364.52 L387.9024,364.52 Z M341.1024,363.48 C342.1424,363.48 343.0224,363.08 343.6624,362.44 C344.1424,361.88 344.5424,361.16 344.7824,360.12 C345.1824,358.52 345.1024,356.92 345.1024,356.76 C344.7024,356.6 344.2224,356.52 343.8224,356.44 L343.7424,356.44 C341.7424,356.44 340.1424,358.2 339.5024,359.88 C339.1024,360.84 339.0224,361.72 339.2624,362.36 C339.5024,363 340.2224,363.48 341.1024,363.48 L341.1024,363.48 L341.1024,363.48 Z M363.9024,362.52 C376.4624,362.04 383.0224,358.52 386.3024,355.56 C388.1424,353.88 389.1824,352.28 389.6624,351.24 C390.1424,350.2 390.3824,349.48 390.3824,349.32 C390.3824,349.32 389.1824,348.92 387.2624,348.84 L386.9424,348.84 C382.7824,348.76 374.1424,350.6 363.9024,362.52 L363.9024,362.52 L363.9024,362.52 Z M350.2224,361.24 C360.3824,359.72 366.0624,355.32 369.1024,351.96 C372.3024,348.44 373.2624,345.16 373.2624,345 C373.2624,345 371.9824,344.68 370.1424,344.6 L369.7424,344.6 L369.2624,344.6 C364.2224,344.76 355.0224,347.08 350.2224,361.24 L350.2224,361.24 L350.2224,361.24 Z M402.2224,356.36 C405.5024,356.36 408.7824,355.96 411.8224,355.24 C417.1024,353.88 419.4224,351.88 420.3824,350.44 C420.9424,349.64 421.1024,348.84 421.1824,348.44 C421.2624,347.96 421.1824,347.64 421.1824,347.56 C421.1824,347.56 417.6624,346.6 412.7824,346.52 L412.2224,346.52 C409.9024,346.52 407.5824,346.76 405.3424,347.16 C396.9424,348.84 392.5424,355.24 392.4624,355.24 C392.6224,355.24 396.6224,356.36 402.2224,356.36 L402.2224,356.36 L402.2224,356.36 Z M378.7024,347.88 C379.7424,347.88 380.6224,347.48 381.2624,346.84 C381.7424,346.28 382.1424,345.56 382.3824,344.52 C382.7824,342.92 382.7024,341.32 382.7024,341.16 C382.3024,341 381.8224,340.92 381.4224,340.84 L381.3424,340.84 C379.3424,340.84 377.7424,342.6 377.1024,344.28 C376.7024,345.24 376.7024,346.04 376.9424,346.68 C377.1024,347.4 377.8224,347.88 378.7024,347.88 L378.7024,347.88 L378.7024,347.88 Z M396.3824,345.4 C396.4624,345.4 401.1824,344.2 405.9824,341.24 C410.3824,338.52 415.8224,333.64 416.5424,326.2 C416.5424,326.2 416.1424,326.12 415.5024,326.04 L415.2624,326.04 C413.9024,326.04 411.2624,326.44 407.9824,328.92 C403.7424,332.12 399.8224,337.64 396.3824,345.4 L396.3824,345.4 L396.3824,345.4 Z M384.8624,345 C384.8624,345 388.2224,343.64 392.4624,340.12 C396.3824,336.84 401.8224,330.92 405.8224,321.48 C405.8224,321.48 404.9424,321 403.5024,320.92 L403.2624,320.92 L402.8624,320.92 C400.9424,321 397.9824,321.8 394.7024,325.32 C391.0224,329.32 387.6624,335.96 384.8624,345 L384.8624,345 L384.8624,345 Z M414.7824,344.12 C418.6224,344.12 419.9824,342.04 420.3824,341.16 C421.0224,339.72 420.8624,338.2 420.8624,338.2 C420.2224,338.04 419.5824,337.96 418.9424,337.96 L418.7824,337.96 C415.7424,337.96 413.3424,339.48 412.3024,341 C412.0624,341.32 411.5024,342.36 411.9824,343.16 C412.3824,343.8 413.3424,344.12 414.7824,344.12 L414.7824,344.12 L414.7824,344.12 Z M423.3424,333.32 C425.5024,333.32 428.7824,333.16 432.2224,332.52 C435.6624,331.88 437.5824,329 438.6224,326.6 C439.7424,324.04 440.0624,321.64 440.0624,321.56 C429.4224,321.88 424.3824,325 422.0624,327.56 C419.6624,330.2 419.5024,332.92 419.5024,333.08 C419.5824,333.24 421.0224,333.32 423.3424,333.32 L423.3424,333.32 L423.3424,333.32 Z M412.2224,322.28 C412.2224,322.28 413.4224,320.76 414.6224,318.92 C415.9024,317 417.0224,314.92 417.0224,313.24 C417.0224,311.64 417.4224,308.2 417.6624,306.36 C417.9824,303.96 418.2224,301.96 418.3024,301.72 C418.0624,301.8 411.6624,304.2 411.6624,310.2 C411.6624,316.2 412.2224,322.2 412.2224,322.28 L412.2224,322.28 L412.2224,322.28 Z M420.5424,321.72 L420.7024,321.72 C422.6224,321.4 425.9024,319.96 429.5824,317.88 C433.6624,315.56 436.9424,313.08 438.8624,310.84 C440.6224,308.84 441.6624,305.64 441.9824,301.48 C442.2224,298.52 441.9024,295.96 441.9024,295.72 C441.5824,295.64 441.1824,295.56 440.8624,295.56 C439.4224,295.56 437.9824,296.2 435.9024,297.64 C434.3024,298.76 432.5424,300.2 430.7024,302.04 C427.5024,305.24 424.9424,308.36 424.9424,308.44 C424.7024,308.84 422.9424,312.12 421.5024,315.32 C420.6224,317.32 420.0624,318.84 419.9024,319.88 C419.8224,320.52 419.7424,320.92 419.9024,321.32 C419.9824,321.48 420.0624,321.64 420.2224,321.64 C420.3024,321.72 420.3824,321.72 420.5424,321.72 L420.5424,321.72 L420.5424,321.72 Z" fill="#435125"></path>
        <path d="M515.92,79.1722 C448.108,105.0602 382.032,154.7372 298.84,147.8122 C278.375,146.1082 251.616,148.7912 233.2,135.8122 C237.203,150.2982 240.536,176.9722 224.32,185.7322 C211.626,192.5892 196.9,175.9422 182.48,179.1322 C161.808,183.7062 150.392,227.2872 124,196.6122 C128.899,242.2772 143.127,264.5612 186.72,282.2122 C205.121,287.0662 236.716,270.4462 235.92,300.6122 C238.441,301.0702 250.301,301.1552 252.56,300.6922 C234.212,272.9862 334.39,263.0002 351.04,247.6522 C360.588,238.8502 351.79,227.9422 365.76,221.3322 C377.404,215.8232 385.166,227.9362 394,228.0522 C407.69,228.2322 417.15,218.1562 432.16,223.9722 C425.545,211.4242 410.296,195.3482 398.88,183.8922 C396.912,159.8282 424.731,145.9572 442.76,132.8922 C461.68,119.1822 509.948,99.9242 515.92,79.1722" fill="#D27727"></path>
    </g>
</svg>

<svg xmlns="http://www.w3.org/2000/svg" width="640" height="480"><g fill="none" fill-rule="evenodd"><path fill="#FFF" d="M0 0h640v480H0z"/><path fill="#435125" d="M305.84 401.56c-.16-.08-.16-.08-.24-.16l-.08-.08c-.24-.24-.72-.64-1.28-1.28-1.04-1.2-2.48-2.96-3.76-4.56-2.48-3.12-4.56-5.76-4.96-6.32l-.64-.8-6.24-1.92-4.56-2.08 2.4-2.72 8.32 3.6 6.24 1.28 11.52 8.48s-1.68 1.36-3.28 2.88c-.72.64-1.68 1.52-2.32 2.24-.32.32-.56.64-.72.88-.08.16-.16.32-.24.4l.72-.48.8.64-1.6.16-.08-.16zm-42.64-12.8c-5.44 0-10.8-1.52-15.92-4.48 0 0 .64-1.28 2.32-2.48 1.52-1.12 4.32-2.48 8.88-2.48h.08c5.36 0 11.92 1.84 19.52 5.44-.32.16-6.24 4-14.88 4zm-23.52-5.2c-1.04 0-1.92-.4-2.56-1.04-.48-.56-.88-1.28-1.12-2.32-.4-1.6-.32-3.2-.32-3.36.4-.16.88-.24 1.28-.32h.08c2 0 3.6 1.76 4.24 3.44.4.96.48 1.84.24 2.48-.24.64-.96 1.12-1.84 1.12zm41.36-4.8c-13.92-2-19.76-7.04-22.24-10.88-2.64-4.08-2.08-7.92-2.08-8 0 0 .88-.24 2.16-.24 3.6.08 13.04 1.92 22.16 19.12zm-28.48-2.72c-5.92 0-10.48-1.04-13.44-3.04-1.68-1.2-2.56-2.4-2.96-3.28-.4-.8-.48-1.52-.48-1.6.16-.08 2.56-1.12 6.24-1.28h.96c4.56 0 11.52 1.52 18.88 8.64-3.36.32-6.48.56-9.2.56zm-28.72-1.12c-6.24 0-14.88-1.92-20.24-7.28.08 0 5.84-1.52 12.4-1.68h1.2c5.84 0 10.32 1.12 13.36 3.36 1.04.8 1.6 1.52 1.76 2.24.08.56-.24 1.2-.88 1.68-1.36 1.04-3.76 1.52-7.12 1.6l-.48.08zm-20.32-10.4c-.8 0-1.52-.32-2-.96-.4-.48-.72-1.12-.88-2-.32-1.44-.24-2.96-.24-2.96.32-.16.64-.24.96-.24.96 0 1.6.48 2.08.96.56.56 1.04 1.28 1.36 2.08.32.8.32 1.52.16 2.08s-.64 1.04-1.44 1.04zm46.88-1.04c-1.04 0-1.92-.4-2.56-1.04-.48-.56-.88-1.28-1.12-2.32-.4-1.6-.32-3.2-.32-3.36.4-.16.88-.24 1.28-.32h.08c2 0 3.6 1.76 4.24 3.44.4.96.48 1.84.24 2.48-.24.64-.96 1.12-1.84 1.12zm-22.8-.96c-12.56-.48-19.12-4-22.4-6.96-1.84-1.68-2.88-3.28-3.36-4.32-.48-1.04-.72-1.76-.72-1.92 0 0 1.2-.4 3.12-.48h.32c4.16-.08 12.8 1.76 23.04 13.68zm13.6-1.28c-10.16-1.52-15.84-5.92-18.88-9.28-3.2-3.52-4.16-6.8-4.16-6.96 0 0 1.28-.32 3.12-.4h.88c5.12.16 14.32 2.48 19.04 16.64zm-52-4.88c-3.28 0-6.56-.4-9.6-1.12-5.28-1.36-7.6-3.36-8.56-4.8-.56-.8-.72-1.6-.8-2-.08-.48 0-.8 0-.88 0 0 3.52-.96 8.4-1.04h.56c2.32 0 4.64.24 6.88.64 8.4 1.68 12.8 8.08 12.88 8.08-.08 0-4.08 1.12-9.76 1.12zm23.52-8.48c-1.04 0-1.92-.4-2.56-1.04-.48-.56-.88-1.28-1.12-2.32-.4-1.6-.32-3.2-.32-3.36.4-.16.88-.24 1.28-.32h.08c2 0 3.6 1.76 4.24 3.44.4.96.4 1.76.16 2.4-.16.72-.88 1.2-1.76 1.2zm-17.68-2.48c-.08 0-4.8-1.2-9.6-4.16-4.4-2.72-9.84-7.6-10.56-15.04 0 0 .4-.08 1.04-.16h.24c1.36 0 4 .4 7.28 2.88 4.32 3.2 8.16 8.72 11.6 16.48zm11.6-.4s-3.36-1.36-7.6-4.88c-3.92-3.28-9.36-9.2-13.36-18.64 0 0 .88-.48 2.32-.56h.64c1.92.08 4.88.88 8.16 4.4 3.68 4 6.96 10.64 9.84 19.68zm-29.92-.88c-3.84 0-5.2-2.08-5.6-2.96-.64-1.44-.48-2.96-.48-2.96.64-.16 1.28-.24 1.92-.24h.16c3.04 0 5.44 1.52 6.48 3.04.24.32.8 1.36.32 2.16-.4.64-1.36.96-2.8.96zm-8.56-10.8c-2.16 0-5.44-.16-8.88-.8-3.44-.64-5.36-3.52-6.4-5.92-1.12-2.56-1.44-4.96-1.44-5.04 10.64.32 15.68 3.44 18 6 2.4 2.64 2.56 5.36 2.56 5.52-.08.16-1.6.24-3.84.24zm11.04-11.04s-1.2-1.52-2.4-3.36c-1.28-1.92-2.4-4-2.4-5.68 0-1.6-.4-5.04-.64-6.88-.32-2.4-.56-4.4-.64-4.64.24.08 6.64 2.48 6.64 8.48.08 6-.56 12-.56 12.08zm-8.24-.56h-.16c-1.92-.32-5.2-1.76-8.88-3.84-4.08-2.32-7.36-4.8-9.28-7.04-1.76-2-2.8-5.2-3.12-9.36-.24-2.96.08-5.52.08-5.76.32-.08.72-.16 1.04-.16 1.44 0 2.88.64 4.96 2.08 1.6 1.12 3.36 2.56 5.2 4.4 3.2 3.2 5.76 6.32 5.76 6.4.24.4 2 3.68 3.44 6.88.88 2 1.44 3.52 1.6 4.56.08.64.16 1.04 0 1.44-.08.16-.16.32-.32.32-.08.08-.16.08-.32.08z"/><path fill="#435125" d="M285.662 401.56c.16-.08.16-.08.24-.16l.08-.08c.24-.24.72-.64 1.28-1.28 1.04-1.2 2.48-2.96 3.76-4.56 2.48-3.12 4.56-5.76 4.96-6.32l.64-.8 6.24-1.92 4.56-2.08-2.4-2.72-8.32 3.6-6.24 1.28-11.52 8.32s1.68 1.36 3.28 2.88c.72.64 1.68 1.52 2.32 2.24.32.32.56.64.72.88.08.16.16.32.24.4l-.72-.48-.8.64 1.6.16h.08zm42.64-12.8c5.44 0 10.8-1.52 15.92-4.48 0 0-.64-1.28-2.32-2.48-1.52-1.12-4.32-2.48-8.88-2.48h-.08c-5.36 0-11.92 1.84-19.52 5.44.32.16 6.24 4 14.88 4zm23.52-5.2c1.04 0 1.92-.4 2.56-1.04.48-.56.88-1.28 1.12-2.32.4-1.6.32-3.2.32-3.36-.4-.16-.88-.24-1.28-.32h-.08c-2 0-3.6 1.76-4.24 3.44-.4.96-.48 1.84-.24 2.48.16.64.96 1.12 1.84 1.12zm-41.36-4.8c13.92-2 19.76-7.04 22.24-10.88 2.64-4.08 2.08-7.92 2.08-8 0 0-.88-.24-2.16-.24-3.6.08-13.04 1.92-22.16 19.12zm28.48-2.72c5.92 0 10.48-1.04 13.44-3.04 1.68-1.2 2.56-2.4 2.96-3.28.4-.8.48-1.52.48-1.6-.16-.08-2.56-1.12-6.24-1.28h-.96c-4.56 0-11.52 1.52-18.88 8.64 3.36.32 6.4.56 9.2.56zm28.72-1.12c6.24 0 14.88-1.92 20.24-7.28-.08 0-5.84-1.52-12.4-1.68h-1.2c-5.84 0-10.32 1.12-13.36 3.36-1.04.8-1.6 1.52-1.76 2.24-.08.56.24 1.2.88 1.68 1.36 1.04 3.76 1.52 7.12 1.6l.48.08zm20.24-10.4c.8 0 1.52-.32 2-.96.4-.48.72-1.12.88-2 .32-1.44.24-2.96.24-2.96-.32-.16-.64-.24-.96-.24-.96 0-1.6.48-2.08.96-.56.56-1.04 1.28-1.36 2.08-.32.8-.32 1.52-.16 2.08s.72 1.04 1.44 1.04zm-46.8-1.04c1.04 0 1.92-.4 2.56-1.04.48-.56.88-1.28 1.12-2.32.4-1.6.32-3.2.32-3.36-.4-.16-.88-.24-1.28-.32h-.08c-2 0-3.6 1.76-4.24 3.44-.4.96-.48 1.84-.24 2.48.24.64.96 1.12 1.84 1.12zm22.8-.96c12.56-.48 19.12-4 22.4-6.96 1.84-1.68 2.88-3.28 3.36-4.32.48-1.04.72-1.76.72-1.92 0 0-1.2-.4-3.12-.48h-.32c-4.16-.08-12.8 1.76-23.04 13.68zm-13.68-1.28c10.16-1.52 15.84-5.92 18.88-9.28 3.2-3.52 4.16-6.8 4.16-6.96 0 0-1.28-.32-3.12-.4h-.88c-5.04.16-14.24 2.48-19.04 16.64zm52-4.88c3.28 0 6.56-.4 9.6-1.12 5.28-1.36 7.6-3.36 8.56-4.8.56-.8.72-1.6.8-2 .08-.48 0-.8 0-.88 0 0-3.52-.96-8.4-1.04h-.56c-2.32 0-4.64.24-6.88.64-8.4 1.68-12.8 8.08-12.88 8.08.16 0 4.16 1.12 9.76 1.12zm-23.52-8.48c1.04 0 1.92-.4 2.56-1.04.48-.56.88-1.28 1.12-2.32.4-1.6.32-3.2.32-3.36-.4-.16-.88-.24-1.28-.32h-.08c-2 0-3.6 1.76-4.24 3.44-.4.96-.4 1.76-.16 2.4.16.72.88 1.2 1.76 1.2zm17.68-2.48c.08 0 4.8-1.2 9.6-4.16 4.4-2.72 9.84-7.6 10.56-15.04 0 0-.4-.08-1.04-.16h-.24c-1.36 0-4 .4-7.28 2.88-4.24 3.2-8.16 8.72-11.6 16.48zm-11.52-.4s3.36-1.36 7.6-4.88c3.92-3.28 9.36-9.2 13.36-18.64 0 0-.88-.48-2.32-.56h-.64c-1.92.08-4.88.88-8.16 4.4-3.68 4-7.04 10.64-9.84 19.68zm29.92-.88c3.84 0 5.2-2.08 5.6-2.96.64-1.44.48-2.96.48-2.96-.64-.16-1.28-.24-1.92-.24h-.16c-3.04 0-5.44 1.52-6.48 3.04-.24.32-.8 1.36-.32 2.16.4.64 1.36.96 2.8.96zm8.56-10.8c2.16 0 5.44-.16 8.88-.8 3.44-.64 5.36-3.52 6.4-5.92 1.12-2.56 1.44-4.96 1.44-5.04-10.64.32-15.68 3.44-18 6-2.4 2.64-2.56 5.36-2.56 5.52.08.16 1.52.24 3.84.24zm-11.12-11.04s1.2-1.52 2.4-3.36c1.28-1.92 2.4-4 2.4-5.68 0-1.6.4-5.04.64-6.88.32-2.4.56-4.4.64-4.64-.24.08-6.64 2.48-6.64 8.48s.56 12 .56 12.08zm8.32-.56h.16c1.92-.32 5.2-1.76 8.88-3.84 4.08-2.32 7.36-4.8 9.28-7.04 1.76-2 2.8-5.2 3.12-9.36.24-2.96-.08-5.52-.08-5.76-.32-.08-.72-.16-1.04-.16-1.44 0-2.88.64-4.96 2.08-1.6 1.12-3.36 2.56-5.2 4.4-3.2 3.2-5.76 6.32-5.76 6.4-.24.4-2 3.68-3.44 6.88-.88 2-1.44 3.52-1.6 4.56-.08.64-.16 1.04 0 1.44.08.16.16.32.32.32.08.08.16.08.32.08z"/><path fill="#D27727" d="M515.92 79.172c-67.812 25.888-133.888 75.565-217.08 68.64-20.465-1.704-47.224.98-65.64-12 4.003 14.486 7.336 41.16-8.88 49.92-12.694 6.857-27.42-9.79-41.84-6.6-20.672 4.574-32.088 48.155-58.48 17.48 4.9 45.665 19.127 67.95 62.72 85.6 18.4 4.854 49.996-11.766 49.2 18.4 2.52.458 14.38.543 16.64.08-18.348-27.706 81.83-37.692 98.48-53.04 9.548-8.802.75-19.71 14.72-26.32 11.644-5.51 19.406 6.604 28.24 6.72 13.69.18 23.15-9.896 38.16-4.08-6.615-12.548-21.864-28.624-33.28-40.08-1.968-24.064 25.85-37.935 43.88-51 18.92-13.71 67.188-32.968 73.16-53.72"/></g></svg>
